app/assets/images/heroicons/micro/archive-box-x-mark.svg

<svg width="16" height="16" viewBox="0 0 16 16" fill="none" xmlns="http://www.w3.org/2000/svg">
<path d="M2 3C2 2.44772 2.44772 2 3 2H13C13.5523 2 14 2.44772 14 3V4C14 4.55228 13.5523 5 13 5H3C2.44772 5 2 4.55228 2 4V3Z" fill="#0F172A"/>
<path fill-rule="evenodd" clip-rule="evenodd" d="M13 6H3V12C3 13.1046 3.89543 14 5 14H11C12.1046 14 13 13.1046 13 12V6ZM5.71967 7.46967C6.01256 7.17678 6.48744 7.17678 6.78033 7.46967L8 8.68934L9.21967 7.46967C9.51256 7.17678 9.98744 7.17678 10.2803 7.46967C10.5732 7.76256 10.5732 8.23744 10.2803 8.53033L9.06066 9.75L10.2803 10.9697C10.5732 11.2626 10.5732 11.7374 10.2803 12.0303C9.98744 12.3232 9.51256 12.3232 9.21967 12.0303L8 10.8107L6.78033 12.0303C6.48744 12.3232 6.01256 12.3232 5.71967 12.0303C5.42678 11.7374 5.42678 11.2626 5.71967 10.9697L6.93934 9.75L5.71967 8.53033C5.42678 8.23744 5.42678 7.76256 5.71967 7.46967Z" fill="#0F172A"/>
</svg>

<svg xmlns="http://www.w3.org/2000/svg" viewBox="0 0 16 16" fill="currentColor" aria-hidden="true" data-slot="icon">
  <path d="M2 3a1 1 0 0 1 1-1h10a1 1 0 0 1 1 1v1a1 1 0 0 1-1 1H3a1 1 0 0 1-1-1V3Z"/>
  <path fill-rule="evenodd" d="M13 6H3v6a2 2 0 0 0 2 2h6a2 2 0 0 0 2-2V6ZM5.72 7.47a.75.75 0 0 1 1.06 0L8 8.69l1.22-1.22a.75.75 0 1 1 1.06 1.06L9.06 9.75l1.22 1.22a.75.75 0 1 1-1.06 1.06L8 10.81l-1.22 1.22a.75.75 0 0 1-1.06-1.06l1.22-1.22-1.22-1.22a.75.75 0 0 1 0-1.06Z" clip-rule="evenodd"/>
</svg>
